src/ios-images.svg

<svg xmlns="http://www.w3.org/2000/svg" viewBox="0 0 512 512" xml:space="preserve"><path d="M390.4 121.9 384 32 32 56l23.3 319.9 22.2-1.6-5.5 78.9L456 480l24-352-89.6-6.1zm-321.2 237L49.1 71.6l320.2-22.4 5 71.6-16.1-1.1-3.7-53.5L67.1 86.4l15.3 218.2-3.8 53.6-9.4.7zm371.4 104L88.1 438.3 110.4 119l352.5 24.6-22.3 319.3z"/><path d="m126.3 136.2-15.6 223.5L430.2 382l15.6-223.5-319.5-22.3zm42.8 211.5 77.5-95.1L310 357.5l-140.9-9.8zm160.5 11.2-23.2-38.3 24.5-30 43.2 71.4-44.5-3.1zm47.8-141c-.6 8.8-8.3 15.5-17.1 14.8s-15.5-8.3-14.9-17.1c.6-8.8 8.3-15.5 17.1-14.8 8.9.6 15.6 8.3 14.9 17.1z"/></svg>

<?xml version="1.0" encoding="utf-8"?>
<!-- Generator: Adobe Illustrator 18.1.1, SVG Export Plug-In . SVG Version: 6.00 Build 0)  -->
<svg version="1.1" id="Layer_1" xmlns="http://www.w3.org/2000/svg" xmlns:xlink="http://www.w3.org/1999/xlink" x="0px" y="0px"
	 viewBox="0 0 512 512" enable-background="new 0 0 512 512" xml:space="preserve">
<g>
	<path d="M390.4,121.9L384,32L32,56l23.3,319.9l22.2-1.6L72,453.2L456,480l24-352L390.4,121.9z M69.2,358.9L49.1,71.6l320.2-22.4
		l5,71.6l-16.1-1.1l-3.7-53.5L67.1,86.4l15.3,218.2l-3.8,53.6L69.2,358.9z M440.6,462.9L88.1,438.3L110.4,119l352.5,24.6
		L440.6,462.9z"/>
	<g>
		<path d="M126.3,136.2l-15.6,223.5L430.2,382l15.6-223.5L126.3,136.2z M169.1,347.7l77.5-95.1L310,357.5L169.1,347.7z M329.6,358.9
			l-23.2-38.3l24.5-30l43.2,71.4L329.6,358.9z M377.4,217.9c-0.6,8.8-8.3,15.5-17.1,14.8s-15.5-8.3-14.9-17.1
			c0.6-8.8,8.3-15.5,17.1-14.8C371.4,201.4,378.1,209.1,377.4,217.9z"/>
	</g>
</g>
</svg>
